X:278
T:Chinquapin Hunting
S:Gilles Apap â€“ Friends (GKJ 00107)
N:Transcribed by Bruce Thomson
R:Reel
M:2/4
L:1/8
K:A
|:â€Aâ€e3e|â€Dâ€fec2|â€Aâ€e3e|â€Dâ€fecd|â€Aâ€e3e|â€Dâ€fefg|â€Aâ€abaf|â€Eâ€efed|â€Aâ€cBA2:|
|:â€Aâ€a3a|a2g2|â€Dâ€f3f|f4|â€Aâ€a3a|fgaf|â€Eâ€efed|â€Aâ€cBA2:|
[|â€Dâ€f3e|fec2|â€Eâ€B3B|B4|â€Dâ€fefg|f2fg|â€Eâ€efed|â€Aâ€cBA2|
â€œDâ€f3e|fec2|â€Eâ€B3B|B4|â€Dâ€fefg|a2af|
â€œEâ€efed|â€Aâ€cBA2|]

